images/youtube-icon.svg

<svg width="24" height="24" viewBox="0 0 24 24" fill="none" xmlns="http://www.w3.org/2000/svg">
<path d="M20.6231 7.8828C20.5212 7.51945 20.3227 7.19049 20.0487 6.93089C19.7669 6.66331 19.4216 6.4719 19.0453 6.37474C17.637 6.00372 11.9948 6.00372 11.9948 6.00372C9.64257 5.97697 7.29096 6.09462 4.9532 6.356C4.57689 6.46034 4.23222 6.65603 3.94984 6.92564C3.67237 7.19248 3.4714 7.52152 3.36641 7.88205C3.11422 9.24002 2.99168 10.6189 3.00046 12C2.99146 13.3799 3.1137 14.7583 3.36641 16.1179C3.46915 16.477 3.66937 16.8045 3.94759 17.0691C4.2258 17.3337 4.57225 17.5248 4.9532 17.626C6.38026 17.9963 11.9948 17.9963 11.9948 17.9963C14.3499 18.0231 16.7045 17.9054 19.0453 17.644C19.4216 17.5468 19.7669 17.3554 20.0487 17.0878C20.3226 16.8283 20.5209 16.4993 20.6223 16.1359C20.8811 14.7785 21.007 13.3991 20.998 12.0172C21.0175 10.6295 20.8918 9.24363 20.6231 7.88205V7.8828ZM10.201 14.5664V9.43434L14.8954 12.0007L10.201 14.5664Z" fill="#595A7E"/>
</svg>

<svg xmlns="http://www.w3.org/2000/svg" width="24" height="24" fill="none"><path fill="#595A7E" d="M20.623 7.883a2.088 2.088 0 0 0-.574-.952 2.288 2.288 0 0 0-1.004-.556c-1.408-.371-7.05-.371-7.05-.371a57.488 57.488 0 0 0-7.042.352 2.37 2.37 0 0 0-1.003.57 2.17 2.17 0 0 0-.584.956A21.795 21.795 0 0 0 3 12c-.009 1.38.114 2.758.366 4.118.103.359.303.687.582.951.278.265.624.456 1.005.557 1.427.37 7.042.37 7.042.37 2.355.027 4.71-.09 7.05-.352a2.288 2.288 0 0 0 1.004-.556c.274-.26.472-.589.573-.952.26-1.357.385-2.737.376-4.119a19.913 19.913 0 0 0-.375-4.135Zm-10.422 6.683V9.434l4.694 2.567-4.694 2.565Z"/></svg>
